X:2533
T:Mount Hills
C:anon.
O:England
S:Playford,11th Ed.,1701. (p).1701.PLFD.456
Z:Chris Partington.
F:http://abc.musicaviva.com/tunes/england/mount-hills/mount-hills.abc
%Posted at abcusers Jan 2nd 2001 by Johnny Adams.
M:4/4
L:1/4
Q:1/2=100
K:G
D|GdBB|A/B/A/G/FD|GdBB|dc/B/A2|
GdBB|A/B/A/G/FD|GF/-E/cB/-A/|F2G2:|
|:F>GAB|cBAG/-F/|GEcd|B2A2|
d/e/d/c/BB|GGE>B|cB/-A/ G/-F/G/-A/|A2G2:|
W:
W:
W:  From Musica Viva - http://www.musicaviva.com
W:  the Internet center for free sheet music downloads.
